X:21
T: Boston Boy
S: Ricky Skaggs
S: MandoZine TablEdit Archives
Z: TablEdited by Mike Stangeland for MandoZine
L: 1/8
Q: 616
M: 4/4
K: C
 [c4E4C4] [c4E4C4] | [cEC][cEC] [cEC][cEC] [c2E2C2] G,B, |
 "C"C2 CC CD EG | "F"FF FF FE D^F | "G"G^F GA BG GB | "C"cB cB AG EG, |
 C2 [c2E2C2] EG GE | "F"FE FE FE D^F | "G"G^F GA Bc dB | "C"[e2c2] [ec][ec] [ec]G, G,B, |
 C2 CD EC CE | "F"FE FE FE D^F | G^F GA Bc dB | "C"cB cB AB cB |
 cB cB cB AG | "F"FE FA zA FF | "G"G^F GA Bc dB | "C"c2 [cEC][cEC] [c2E2C2] [ed]e |
